modules/feathericon/icons/disappointed.svg

<?xml version="1.0" encoding="UTF-8"?>
<svg width="24px" height="24px" viewBox="0 0 24 24" version="1.1" xmlns="http://www.w3.org/2000/svg" xmlns:xlink="http://www.w3.org/1999/xlink">
    <!-- Generator: sketchtool 52.2 (67145) - http://www.bohemiancoding.com/sketch -->
    <title>disappointed</title>
    <desc>Created with sketchtool.</desc>
    <g id="people" stroke="none" stroke-width="1" fill="none" fill-rule="evenodd">
        <g id="disappointed" fill="#000000">
            <path d="M12,22 C6.4771525,22 2,17.5228475 2,12 C2,6.4771525 6.4771525,2 12,2 C17.5228475,2 22,6.4771525 22,12 C22,17.5228475 17.5228475,22 12,22 Z M12,20 C16.418278,20 20,16.418278 20,12 C20,7.581722 16.418278,4 12,4 C7.581722,4 4,7.581722 4,12 C4,16.418278 7.581722,20 12,20 Z M16,17 L14.6611201,17 C14.6611201,17 14.2442153,14.3333333 12,14.3333333 C9.75578467,14.3333333 9.33333333,17 9.33333333,17 L8,17 C8,14.790861 9.790861,13 12,13 C14.209139,13 16,14.790861 16,17 Z M13.7660598,9.19151496 L13,9 L13,8 L17,9 L17,10 L15.7632349,9.69080874 C15.9130909,9.92426559 16,10.2019834 16,10.5 C16,11.3284271 15.3284271,12 14.5,12 C13.6715729,12 13,11.3284271 13,10.5 C13,9.93818463 13.3088672,9.44850906 13.7660598,9.19151496 Z M8.23676506,9.69080874 L7,10 L7,9 L11,8 L11,9 L10.2339402,9.19151496 C10.6911328,9.44850906 11,9.93818463 11,10.5 C11,11.3284271 10.3284271,12 9.5,12 C8.67157288,12 8,11.3284271 8,10.5 C8,10.2019834 8.08690911,9.92426559 8.23676506,9.69080874 Z" id="Shape"></path>
        </g>
    </g>
</svg>

<svg width="24" height="24" viewBox="0 0 24 24" xmlns="http://www.w3.org/2000/svg"><path d="M12 22C6.477 22 2 17.523 2 12S6.477 2 12 2s10 4.477 10 10-4.477 10-10 10zm0-2a8 8 0 1 0 0-16 8 8 0 0 0 0 16zm4-3h-1.339s-.417-2.667-2.661-2.667S9.333 17 9.333 17H8a4 4 0 1 1 8 0zm-2.234-7.808L13 9V8l4 1v1l-1.237-.31a1.5 1.5 0 1 1-1.997-.5zm-5.53.499L7 10V9l4-1v1l-.766.192a1.5 1.5 0 1 1-1.997.499z" fill="#000" fill-rule="evenodd"/></svg>
